X: 10424
Q: "With spirit."
M: 5/8
L: 1/16
K: Bb
dB3G2 F3ED2 | C2c3c c4Bc |\
dB3G2 F3DF2 | GB3B2 B4Bc |\
d2B2G2 F3ED2 | C2e2d2 ({d}c4f/g/f/e/) |\
dB3G2 F3DF2 | GB3B2 B4 |] dc |\
d2B2G2 F3ED2 | C2c2c2 (c4f/g/f/e/) |\
d2B2G2 F3DF2 | G2B2B2 B4 |]


